X:1
T:Title
%%score [ ( 1 2 ) ( 3 4 ) ] { ( 5 6 ) | ( 7 8 ) }
L:1/8
Q:1/4=120
M:4/4
K:Eb
V:1 treble nm="Midi_74"
V:2 treble 
V:3 bass nm="Midi_74"
V:4 bass 
V:5 treble nm="Org."
V:6 treble 
V:7 bass 
V:8 bass 
V:1
 e8 |"^Double counterpoint" G4 A4 | B8 || c8 | F4 G4 | A4 (B2 A2) | G8 || G8 | c4 A4 | G8 || A8 | %11
 A4"^William Henry Havergal\n(1793-1870)" G4 | F4 D4 | E8 |] %14
V:2
 E8 | E4 E4 | E8 || E8 | F4 =E4 | F4 F4 | E8 || E8 | G4 (F2 E2) | (E4 D4) || F8 | F4 E4 | C4 B,4 | %13
 B,8 |] %14
V:3
 B,8 | C4 C4 | B,8 || A,8 | C4 C4 | C4 B,4 | B,8 || C8 | C4 C4 | (C4 =B,4) || C8 | D4 G,4 | %12
 A,4 F,4 | G,8 |] %14
V:4
 G,8 | C4 A,4 | G,8 || A,8 | A,4 G,4 | F,4 D,4 | E,8 || C8 | E,4 F,4 | G,8 || F,8 | B,,4 C,4 | %12
 A,,4 B,,4 | E,8 |] %14
V:5
 e8 | G4 A4 | B8 || c8 | F4 G4 | A4 B2 A2 | G8 || G8 | c4 [CA]4 | G8 || A8 | A4 G4 | F4 D4 | E8 |] %14
V:6
 [EB]8 | E4 [CE]4 | [B,E]8 || [EA]8 | C4 [C=E]4 | [CF]4 [B,F]4 | [B,E]8 || E8 | [CG]4 F2 E2 | %9
 [CE]4 [=B,D]4 || [CF]8 | [DF]4 E4 | C4 B,4 | B,8 |] %14
V:7
 x8 | x8 | x8 || x8 | x8 | x8 | x8 || x8 | x8 | x8 || x8 | x8 | F,4 A,4 | G,8 |] %14
V:8
 G,8 | C4 A,4 | G,8 || A,8 | A,4 G,4 | F,4 D,4 | E,8 || C8 | E,4 F,4 | G,8 || F,8 | B,,4 C,4 | %12
 A,,4 B,,4 | E,8 |] %14

